client/src/Images/icons8-spotify.svg

<?xml version="1.0"?><svg xmlns="http://www.w3.org/2000/svg"  viewBox="0 0 24 24" width="24px" height="24px">    <path d="M 12 2 C 6.4889971 2 2 6.4889971 2 12 C 2 17.511003 6.4889971 22 12 22 C 17.511003 22 22 17.511003 22 12 C 22 6.4889971 17.511003 2 12 2 z M 12 4 C 16.430123 4 20 7.5698774 20 12 C 20 16.430123 16.430123 20 12 20 C 7.5698774 20 4 16.430123 4 12 C 4 7.5698774 7.5698774 4 12 4 z M 10.689453 8 C 9.1494531 8 7.696125 8.171625 6.328125 8.515625 C 5.986125 8.600625 5.7285156 8.8561406 5.7285156 9.3691406 C 5.7285156 9.8821406 6.0709844 10.310609 6.5839844 10.224609 C 6.8399844 10.224609 6.9266562 10.138672 7.0976562 10.138672 C 8.2096562 9.8816719 9.4924531 9.7109375 10.689453 9.7109375 C 13.084453 9.7109375 15.564391 10.309 17.275391 11.25 C 17.531391 11.335 17.616109 11.421875 17.787109 11.421875 C 18.301109 11.421875 18.643516 11.079406 18.728516 10.566406 C 18.728516 10.139406 18.473797 9.8819375 18.216797 9.7109375 C 16.078797 8.5989375 13.340453 8 10.689453 8 z M 10.519531 10.994141 C 9.0655312 10.994141 8.0396719 11.250813 7.0136719 11.507812 C 6.5856719 11.678813 6.4140625 11.849344 6.4140625 12.277344 C 6.4140625 12.619344 6.6696563 12.960938 7.0976562 12.960938 C 7.2686562 12.960937 7.3543906 12.961 7.5253906 12.875 C 8.2953906 12.704 9.3215937 12.533203 10.433594 12.533203 C 12.656594 12.533203 14.710062 13.045328 16.164062 13.986328 C 16.335063 14.071328 16.506734 14.158203 16.677734 14.158203 C 17.104734 14.158203 17.360266 13.815672 17.447266 13.388672 C 17.447266 13.132672 17.276531 12.876078 17.019531 12.705078 C 15.137531 11.593078 12.914531 10.994141 10.519531 10.994141 z M 10.775391 14.007812 C 9.5783906 14.007812 8.4655156 14.178547 7.3535156 14.435547 C 7.0115156 14.435547 6.8417969 14.691203 6.8417969 15.033203 C 6.8417969 15.375203 7.0974531 15.632812 7.4394531 15.632812 C 7.5254531 15.632812 7.6961875 15.546875 7.8671875 15.546875 C 8.7221875 15.375875 9.7484531 15.205078 10.689453 15.205078 C 12.399453 15.205078 14.025594 15.632344 15.308594 16.402344 C 15.479594 16.487344 15.565328 16.572266 15.736328 16.572266 C 15.992328 16.572266 16.248922 16.402609 16.419922 15.974609 C 16.419922 15.632609 16.249125 15.546 16.078125 15.375 C 14.538125 14.52 12.742391 14.007812 10.775391 14.007812 z"/></svg>

<svg xmlns="http://www.w3.org/2000/svg" width="24" height="24"><path d="M12 2C6.489 2 2 6.489 2 12s4.489 10 10 10 10-4.489 10-10S17.511 2 12 2zm0 2c4.43 0 8 3.57 8 8s-3.57 8-8 8-8-3.57-8-8 3.57-8 8-8zm-1.31 4c-1.54 0-2.994.172-4.362.516-.342.085-.6.34-.6.853 0 .513.343.942.856.856.256 0 .343-.086.514-.086a16.49 16.49 0 0 1 3.591-.428c2.395 0 4.875.598 6.586 1.539.256.085.341.172.512.172.514 0 .857-.343.942-.856 0-.427-.255-.684-.512-.855C16.079 8.599 13.34 8 10.689 8zm-.17 2.994c-1.454 0-2.48.257-3.506.514-.428.17-.6.341-.6.77 0 .341.256.683.684.683.17 0 .256 0 .427-.086.77-.171 1.797-.342 2.909-.342 2.223 0 4.276.512 5.73 1.453.171.085.343.172.514.172.427 0 .682-.342.77-.77 0-.255-.171-.512-.428-.683-1.882-1.112-4.105-1.71-6.5-1.71zm.255 3.014c-1.197 0-2.31.17-3.421.428-.342 0-.512.255-.512.597 0 .342.255.6.597.6.086 0 .257-.086.428-.086.855-.171 1.881-.342 2.822-.342 1.71 0 3.337.427 4.62 1.197.17.085.256.17.427.17.256 0 .513-.17.684-.597 0-.342-.17-.429-.342-.6a10.864 10.864 0 0 0-5.303-1.367z"/></svg>
